X:203
T:L'autrier par la matinee
C:Thibaut de Champagne
R:Pastourelle
M:6/8
L:1/8
Q:1/4=135
K:C 
V:1
B2c d2e | d2c d2d | G2A B2c | B2A G2z | \
B2c d2e | d2c d2d | G2A B2c | B2A G2z | 
G2A B2c | d2c2<B2 | A2B c2B | B/2A/2GA2<B2 | 
A2A GFA | A2B cBA | B2c dcB | B2B AGF | 
G2A B2d | dcB A2G | A2B c2B | B/2A/2GA A3 |]




